assets/icons/share-filled.svg

<?xml version="1.0" encoding="UTF-8" standalone="no"?>
<svg
   viewBox="0 0 24 24"
   height="24"
   width="24"
   version="1.1"
   id="svg4"
   sodipodi:docname="share-filled.svg"
   inkscape:version="1.2 (1:1.2.1+202207142221+cd75a1ee6d)"
   xmlns:inkscape="http://www.inkscape.org/namespaces/inkscape"
   xmlns:sodipodi="http://sodipodi.sourceforge.net/DTD/sodipodi-0.dtd"
   xmlns="http://www.w3.org/2000/svg"
   xmlns:svg="http://www.w3.org/2000/svg">
  <defs
     id="defs8" />
  <sodipodi:namedview
     id="namedview6"
     pagecolor="#ffffff"
     bordercolor="#666666"
     borderopacity="1.0"
     inkscape:pageshadow="2"
     inkscape:pageopacity="0.0"
     inkscape:pagecheckerboard="0"
     showgrid="true"
     inkscape:snap-page="true"
     inkscape:zoom="28"
     inkscape:cx="9.3571429"
     inkscape:cy="14.75"
     inkscape:window-width="1920"
     inkscape:window-height="1043"
     inkscape:window-x="0"
     inkscape:window-y="0"
     inkscape:window-maximized="1"
     inkscape:current-layer="svg4"
     inkscape:showpageshadow="2"
     inkscape:deskcolor="#d1d1d1">
    <inkscape:grid
       type="xygrid"
       id="grid6" />
  </sodipodi:namedview>
  <path
     id="path252"
     style="fill:#808080;fill-rule:evenodd;stroke-width:1.5;stroke-linecap:square;stroke-linejoin:round;fill-opacity:1"
     d="M 18 3 A 3 3 0 0 0 15 6 A 3 3 0 0 0 18 9 A 3 3 0 0 0 21 6 A 3 3 0 0 0 18 3 z M 14.236328 7.3242188 L 8.421875 10.230469 A 3 3 0 0 0 6 9 A 3 3 0 0 0 3 12 A 3 3 0 0 0 6 15 A 3 3 0 0 0 8.4160156 13.765625 L 14.236328 16.675781 A 4 4 0 0 1 14.677734 15.78125 L 8.8671875 12.875 A 3 3 0 0 0 9 12 A 3 3 0 0 0 8.8691406 11.123047 L 14.677734 8.21875 A 4 4 0 0 1 14.236328 7.3242188 z M 18 15 A 3 3 0 0 0 15 18 A 3 3 0 0 0 18 21 A 3 3 0 0 0 21 18 A 3 3 0 0 0 18 15 z " />
</svg>

<svg height="24" width="24" xmlns="http://www.w3.org/2000/svg"><path style="fill:gray;stroke-width:1.5;stroke-linecap:square;stroke-linejoin:round;fill-opacity:1" d="M18 3a3 3 0 0 0-3 3 3 3 0 0 0 3 3 3 3 0 0 0 3-3 3 3 0 0 0-3-3zm-3.764 4.324L8.422 10.23A3 3 0 0 0 6 9a3 3 0 0 0-3 3 3 3 0 0 0 3 3 3 3 0 0 0 2.416-1.234l5.82 2.91a4 4 0 0 1 .442-.895l-5.81-2.906A3 3 0 0 0 9 12a3 3 0 0 0-.13-.877l5.808-2.904a4 4 0 0 1-.442-.895zM18 15a3 3 0 0 0-3 3 3 3 0 0 0 3 3 3 3 0 0 0 3-3 3 3 0 0 0-3-3z"/></svg>
